src/assets/filled/BrifecaseTimer.svg

<svg width="24" height="24" viewBox="0 0 24 24"  xmlns="http://www.w3.org/2000/svg">
<path d="M11.13 15.8799C10.88 15.8799 10.63 15.7499 10.49 15.5199C10.28 15.1699 10.39 14.6999 10.75 14.4899L11.64 13.9599V12.8799C11.64 12.4699 11.98 12.1299 12.39 12.1299C12.8 12.1299 13.14 12.4699 13.14 12.8799V14.3799C13.14 14.6399 13 14.8899 12.78 15.0199L11.53 15.7699C11.39 15.8399 11.26 15.8799 11.13 15.8799Z" />
<path d="M21.09 6.98002C20.24 6.04002 18.83 5.57002 16.76 5.57002H16.52V5.53002C16.52 3.85002 16.52 1.77002 12.76 1.77002H11.24C7.48004 1.77002 7.48004 3.85002 7.48004 5.53002V5.57002H7.24004C5.17004 5.57002 3.75004 6.04002 2.91004 6.98002C1.92004 8.09002 1.95004 9.56002 2.05004 10.57L2.06004 10.64L2.12912 11.446C2.14232 11.5999 2.22586 11.7392 2.35558 11.8232C2.63927 12.0068 2.94109 12.1995 3.23004 12.36C3.37004 12.45 3.52004 12.53 3.67004 12.61C4.80004 13.23 6.01004 13.72 7.25004 14.06C7.28004 16.65 9.40004 18.75 12 18.75C14.62 18.75 16.75 16.62 16.75 14V13.96C18.01 13.58 19.22 13.05 20.35 12.39C20.41 12.36 20.45 12.33 20.5 12.3C20.8949 12.0854 21.3045 11.8045 21.6782 11.5395C21.7941 11.4573 21.869 11.3293 21.8847 11.1881L21.9 11.05L21.95 10.58C21.96 10.52 21.96 10.47 21.97 10.4C22.05 9.40002 22.03 8.02002 21.09 6.98002ZM8.91004 5.53002C8.91004 3.83002 8.91004 3.19002 11.24 3.19002H12.76C15.09 3.19002 15.09 3.83002 15.09 5.53002V5.57002H8.91004V5.53002ZM12 17.25C10.35 17.25 8.98004 16.01 8.78004 14.41C8.76004 14.28 8.75004 14.14 8.75004 14C8.75004 12.21 10.21 10.75 12 10.75C13.79 10.75 15.25 12.21 15.25 14C15.25 14.12 15.24 14.23 15.23 14.34V14.35C15.05 15.98 13.67 17.25 12 17.25Z" />
<path d="M21.0401 13.7301C21.2888 13.5919 21.6115 13.7922 21.5856 14.0755L21.2301 17.9601C21.0201 19.9601 20.2001 22.0001 15.8001 22.0001H8.1801C3.7801 22.0001 2.9601 19.9601 2.7601 17.9701L2.41423 14.2668C2.38738 13.9793 2.69488 13.785 2.9501 13.9201C3.7301 14.3501 4.5401 14.7301 5.3701 15.0301C5.6801 15.1401 5.9001 15.4001 5.9901 15.7201C6.7401 18.3201 9.1601 20.2501 12.0001 20.2501C14.8901 20.2501 17.3301 18.2801 18.0401 15.5801C18.1201 15.2601 18.3401 15.0001 18.6501 14.8801C19.4901 14.5501 20.2901 14.1601 21.0401 13.7301Z" />
</svg>

<?xml version="1.0" encoding="UTF-8"?>
<svg width="24" height="24" viewBox="0 0 24 24" xmlns="http://www.w3.org/2000/svg">
 <path d="m11.13 15.88c-0.25 0-0.5-0.13-0.64-0.36-0.21-0.35-0.1-0.82 0.26-1.03l0.89-0.53v-1.08c0-0.41 0.34-0.75 0.75-0.75s0.75 0.34 0.75 0.75v1.5c0 0.26-0.14 0.51-0.36 0.64l-1.25 0.75c-0.14 0.07-0.27 0.11-0.4 0.11z"/>
 <path d="m21.09 6.98c-0.85-0.94-2.26-1.41-4.33-1.41h-0.24v-0.04c0-1.68 0-3.76-3.76-3.76h-1.52c-3.76 0-3.76 2.08-3.76 3.76v0.04h-0.24c-2.07 0-3.49 0.47-4.33 1.41-0.99 1.11-0.96 2.58-0.86 3.59l0.01 0.07 0.06908 0.806c0.0132 0.1539 0.09674 0.2932 0.22646 0.3772 0.28369 0.1836 0.58551 0.3763 0.87446 0.5368 0.14 0.09 0.29 0.17 0.44 0.25 1.13 0.62 2.34 1.11 3.58 1.45 0.03 2.59 2.15 4.69 4.75 4.69 2.62 0 4.75-2.13 4.75-4.75v-0.04c1.26-0.38 2.47-0.91 3.6-1.57 0.06-0.03 0.1-0.06 0.15-0.09 0.3949-0.2146 0.8045-0.4955 1.1782-0.7605 0.1159-0.0822 0.1908-0.2102 0.2065-0.3514l0.0153-0.1381 0.05-0.47c0.01-0.06 0.01-0.11 0.02-0.18 0.08-0.99998 0.06-2.38-0.88-3.42zm-12.18-1.45c0-1.7 0-2.34 2.33-2.34h1.52c2.33 0 2.33 0.64 2.33 2.34v0.04h-6.18v-0.04zm3.09 11.72c-1.65 0-3.02-1.24-3.22-2.84-0.02-0.13-0.03-0.27-0.03-0.41 0-1.79 1.46-3.25 3.25-3.25s3.25 1.46 3.25 3.25c0 0.12-0.01 0.23-0.02 0.34v0.01c-0.18 1.63-1.56 2.9-3.23 2.9z"/>
 <path d="m21.04 13.73c0.2487-0.1382 0.5714 0.0621 0.5455 0.3454l-0.3555 3.8846c-0.21 2-1.03 4.04-5.43 4.04h-7.62c-4.4 0-5.22-2.04-5.42-4.03l-0.34587-3.7033c-0.02685-0.2875 0.28065-0.4818 0.53587-0.3467 0.78 0.43 1.59 0.81 2.42 1.11 0.31 0.11 0.53 0.37 0.62 0.69 0.75 2.6 3.17 4.53 6.01 4.53 2.89 0 5.33-1.97 6.04-4.67 0.08-0.32 0.3-0.58 0.61-0.7 0.84-0.33 1.64-0.72 2.39-1.15z"/>
</svg>
